X: 39477
T: Tartan Bonnets
R: reel
M: 4/4
K: Amajor
|:A3B c2 e2|dcde f2 g2|a3fe2a2|c2B2B2e2|
A3B c2 e2|dcde f2 g2|a3fe2a2|c2A2A2e2:|
|:a2A2e2A2|f2A2e2A2|agaA e2a2|c2B2B2e2|
aAeA f2e2|aAeA c2B2|dcdfe2ed|c2A2A4:|

